mimes/scalable/gnome-mime-application-pdf.svg

<?xml version="1.0" encoding="UTF-8" standalone="no"?>
<svg
   xmlns:dc="http://purl.org/dc/elements/1.1/"
   xmlns:cc="http://creativecommons.org/ns#"
   xmlns:rdf="http://www.w3.org/1999/02/22-rdf-syntax-ns#"
   xmlns:svg="http://www.w3.org/2000/svg"
   xmlns="http://www.w3.org/2000/svg"
   xmlns:sodipodi="http://sodipodi.sourceforge.net/DTD/sodipodi-0.dtd"
   xmlns:inkscape="http://www.inkscape.org/namespaces/inkscape"
   width="48"
   height="48"
   viewBox="0 0 12.7 12.7"
   version="1.1"
   id="svg4"
   sodipodi:docname="gnome-mime-application-pdf.svg"
   inkscape:version="0.92.3 (2405546, 2018-03-11)">
  <metadata
     id="metadata10">
    <rdf:RDF>
      <cc:Work
         rdf:about="">
        <dc:format>image/svg+xml</dc:format>
        <dc:type
           rdf:resource="http://purl.org/dc/dcmitype/StillImage" />
        <dc:title></dc:title>
      </cc:Work>
    </rdf:RDF>
  </metadata>
  <defs
     id="defs8" />
  <sodipodi:namedview
     pagecolor="#ffffff"
     bordercolor="#666666"
     borderopacity="1"
     objecttolerance="10"
     gridtolerance="10"
     guidetolerance="10"
     inkscape:pageopacity="0"
     inkscape:pageshadow="2"
     inkscape:window-width="1366"
     inkscape:window-height="715"
     id="namedview6"
     showgrid="false"
     showguides="true"
     inkscape:guide-bbox="true"
     inkscape:snap-global="true"
     inkscape:zoom="10.979167"
     inkscape:cx="24"
     inkscape:cy="24"
     inkscape:window-x="0"
     inkscape:window-y="27"
     inkscape:window-maximized="1"
     inkscape:current-layer="svg4" />
  <path
     inkscape:connector-curvature="0"
     style="opacity:1;fill:#ff2a2a;fill-opacity:1;fill-rule:nonzero;stroke:none;stroke-width:0.50711805;stroke-linecap:round;stroke-linejoin:bevel;stroke-miterlimit:4;stroke-dasharray:none;stroke-opacity:1"
     d="m 7.3492433,0.0566603 c -0.040983,0 -0.078161,0.0127642 -0.1049033,0.0330729 C 7.218411,0.1094229 7.202933,0.1367362 7.201965,0.1667311 7.3445127,0.2235372 7.4736634,0.30302596 7.5802366,0.40909358 7.76971,0.59766786 7.8931916,0.85276088 7.9104491,1.1392812 h 0.00672 v 0.068213 0.1441772 0.1369425 0.1927531 c 0,0.2812905 0.2266883,0.5079794 0.5079795,0.5079794 h 0.1183391 l -5.291e-4,0.00568 h 1.6924064 c 0.329951,0 0.613684,0.1491999 0.819072,0.3731038 V 1.141865 0.56463964 c 0,-0.14064565 -0.05654,-0.26789289 -0.148312,-0.35966798 C 10.814345,0.11319656 10.687101,0.0566603 10.546455,0.0566603 H 9.0462851 7.7864139 Z"
     id="path965" />
  <path
     style="opacity:1;fill:#333333;fill-opacity:1;fill-rule:nonzero;stroke:none;stroke-width:0.50711805;stroke-linecap:round;stroke-linejoin:bevel;stroke-miterlimit:4;stroke-dasharray:none;stroke-opacity:1"
     d="m 2.9460732,0.55206094 c -0.6285519,0 -1.134298,0.50626306 -1.134298,1.13481446 v 9.9012056 c 0,0.628551 0.5057461,1.134814 1.134298,1.134814 h 4.2855261 2.522327 c 0.6285527,0 1.1342987,-0.506263 1.1342987,-1.134814 V 3.6728008 h -0.01292 C 10.810197,3.1070068 10.337709,2.6687276 9.7539263,2.6687276 h -1.692403 v 0 l -0.11781,-0.00568 C 7.6627483,2.6495013 7.4357343,2.4363589 7.4357343,2.1550682 V 1.9623107 1.8253682 1.6811909 1.612978 h -0.0067 C 7.3941823,1.0346118 6.9321933,0.5804805 6.3510473,0.55464473 l -5.29e-4,-0.002585 h -0.02015 z"
     id="path833"
     inkscape:connector-curvature="0" />
  <path
     style="opacity:1;fill:#cccccc;fill-opacity:1;fill-rule:nonzero;stroke:none;stroke-width:0.50711805;stroke-linecap:round;stroke-linejoin:bevel;stroke-miterlimit:4;stroke-dasharray:none;stroke-opacity:1"
     d="m 6.4269983,1.0791605 c 0.263277,0.019482 0.470254,0.2359637 0.470255,0.504362 v 0.2563151 0.125057 0.092501 c 0,0.5757933 0.427721,1.0388807 0.982369,1.1136271 v 0 l 1.962134,0.026872 c 0.2812647,0.00385 0.5079787,0.2266886 0.5079797,0.5079793 V 5.7894678 11.68575 c 0,0.281291 -0.226688,0.50798 -0.5079797,0.50798 H 7.2315993 2.8582236 c -0.281291,0 -0.50798,-0.226689 -0.50798,-0.50798 V 1.5892069 c 0,-0.2812907 0.226689,-0.5079794 0.50798,-0.5079794 h 3.5692907 z"
     id="path901-5"
     inkscape:connector-curvature="0" />
  <path
     inkscape:connector-curvature="0"
     style="line-height:normal;text-indent:0;text-align:start;text-decoration:none;text-decoration-line:none;text-transform:none;fill:#ff2a2a;fill-opacity:1;stroke-width:0.26458332;marker:none"
     d="m 6.0788443,3.4935525 c -0.066344,0 -0.2460719,0.029791 -0.3178835,0.052899 C 5.580562,3.606088 5.4832341,3.7436662 5.4057074,3.9225739 5.1845571,4.433704 5.4886624,5.3045558 5.8007568,5.9759574 5.5338859,7.024805 5.0857503,8.2803904 4.6151231,9.29942 3.4286156,9.8361437 2.7989439,10.363586 2.7417927,10.866517 c -0.020624,0.182883 0.023183,0.451745 0.3489442,0.69352 0.089205,0.0661 0.1937547,0.100461 0.3028389,0.100461 0.2738285,0 0.5503668,-0.206998 0.8706617,-0.651783 0.2335742,-0.32427 0.4840336,-0.765592 0.7459348,-1.3142452 0.838134,-0.3617915 1.8755747,-0.6884885 2.7634049,-0.8721179 0.4944818,0.468888 0.9369525,0.7061389 1.3181257,0.7061389 0.280786,0 0.5207902,-0.1270913 0.6949769,-0.3678715 C 9.9680717,8.9096513 10.009615,8.6851467 9.9089795,8.4928208 9.7882171,8.2607375 9.4902235,8.1477591 9.0004629,8.1477591 c -0.2877434,0 -0.6407065,0.037113 -1.0512,0.1101672 C 7.3762607,7.657591 6.7791049,6.7808802 6.356932,5.9206314 6.401659,5.7357599 6.4439128,5.5500965 6.4806883,5.3634856 6.5313789,5.1097844 6.5750615,4.8529148 6.5966795,4.5947408 6.619043,4.3288638 6.6181932,4.0540645 6.4768057,3.81726 6.40077,3.6900367 6.2433401,3.4935525 6.0788443,3.4935525 Z M 5.9667358,4.0516691 c 0.013419,-0.00423 0.3272755,0.3406588 0.030089,0.9944181 C 5.5505497,4.5950902 5.935924,4.0616085 5.9667358,4.0516691 Z M 6.1569809,6.6680223 C 6.508336,7.2917152 6.9308703,7.8973773 7.3532912,8.382168 A 15.794834,15.794834 0 0 0 5.3198059,9.0062879 21.90752,21.90752 0 0 0 6.1569809,6.6680223 Z m 2.9051172,2.0014544 c 0.2783019,0 0.3298545,0.04029 0.3678722,0.060665 -0.00667,0.021618 -0.025113,0.06327 -0.071826,0.1281242 -0.09666,0.1329385 -0.3054949,0.1363746 -0.3785485,0.1363746 -0.1672294,0 -0.2291562,-0.098593 -0.4843481,-0.2921619 a 4.5845147,4.5845147 0 0 1 0.5668515,-0.033002 z m -4.83523,1.4069403 C 3.7194654,11.001272 3.4473336,11.123635 3.4003703,11.138296 3.2540137,11.02797 3.2622214,10.952845 3.2654516,10.92427 3.2848333,10.752319 3.5574542,10.447155 4.2268681,10.076417 Z"
     id="path854" />
</svg>

<?xml version="1.0" encoding="UTF-8" standalone="no"?><svg xmlns:dc="http://purl.org/dc/elements/1.1/" xmlns:cc="http://creativecommons.org/ns#" xmlns:rdf="http://www.w3.org/1999/02/22-rdf-syntax-ns#" xmlns="http://www.w3.org/2000/svg" width="48" height="48" viewBox="0 0 12.7 12.7"><metadata><rdf:RDF><cc:Work><dc:format>image/svg+xml</dc:format><dc:type rdf:resource="http://purl.org/dc/dcmitype/StillImage"/><dc:title/></cc:Work></rdf:RDF></metadata><path d="M7.35.06a.17.17 0 0 0-.1.03.1.1 0 0 0-.05.08 1.12 1.12 0 0 1 .71.97v.55c0 .27.23.5.52.5h1.81c.33 0 .6.15.81.38V.56a.5.5 0 0 0-.5-.5H7.79z" fill="#ff2a2a"/><path d="M2.95.55c-.63 0-1.14.5-1.14 1.14v9.9c0 .63.5 1.13 1.14 1.13H9.75c.63 0 1.14-.5 1.14-1.13V3.67h-.01c-.07-.56-.54-1-1.13-1H7.94a.52.52 0 0 1-.5-.51V1.6h-.01A1.12 1.12 0 0 0 6.35.55h-.02z" fill="#333"/><path d="M6.43 1.08a.5.5 0 0 1 .47.5v.48c0 .57.42 1.04.98 1.11l1.96.03c.28 0 .51.22.51.5v7.99a.5.5 0 0 1-.5.5H2.85a.5.5 0 0 1-.51-.5V1.59c0-.28.23-.5.5-.5h3.58z" fill="#ccc"/><path style="line-height:normal;text-indent:0;text-align:start;text-decoration-line:none;text-transform:none;marker:none" d="M6.08 3.5c-.07 0-.25.02-.32.05-.18.06-.28.2-.35.37-.23.51.08 1.38.4 2.06-.28 1.04-.72 2.3-1.2 3.32-1.18.54-1.81 1.06-1.87 1.57-.02.18.02.45.35.69.09.07.2.1.3.1.28 0 .55-.2.87-.65.24-.33.49-.77.75-1.32.84-.36 1.88-.68 2.76-.87.5.47.94.7 1.32.7.28 0 .52-.12.7-.36.18-.25.22-.47.12-.67-.12-.23-.42-.34-.91-.34-.29 0-.64.03-1.05.1a9.88 9.88 0 0 1-1.6-2.33A13.34 13.34 0 0 0 6.6 4.6c.02-.26.02-.54-.12-.77-.08-.13-.24-.33-.4-.33zm-.11.55c.01 0 .32.34.03 1-.45-.45-.06-.99-.03-1zm.19 2.62c.35.62.77 1.23 1.2 1.71a15.8 15.8 0 0 0-2.04.63 21.9 21.9 0 0 0 .84-2.34zm2.9 2c.28 0 .33.04.37.06l-.07.13c-.1.13-.3.13-.38.13-.17 0-.23-.1-.48-.29a4.58 4.58 0 0 1 .56-.03zm-4.83 1.4c-.51.93-.78 1.05-.83 1.07-.15-.11-.14-.19-.13-.22.01-.17.29-.47.96-.84z" fill="#ff2a2a"/></svg>
